components/icon/svg/24/navigation_arrow-down.svg

<?xml version="1.0" encoding="UTF-8"?>
<svg width="24px" height="24px" viewBox="0 0 24 24" version="1.1" xmlns="http://www.w3.org/2000/svg" xmlns:xlink="http://www.w3.org/1999/xlink">
    <!-- Generator: Sketch 64 (93537) - https://sketch.com -->
    <title>ic-db_navigation_arrow-down_24</title>
    <desc>Created with Sketch.</desc>
    <g id="Symbols" stroke="none" stroke-width="1" fill="none" fill-rule="evenodd">
        <g id="24dp-Icon/Navigation/Arrow-Down" fill="#282D37">
            <path d="M12.0026412,3.99735879 C11.4401412,3.99735879 11.0026412,4.43485879 11.0026412,4.99735879 L11.0026412,16.5910588 L6.72144121,12.3098588 C6.50264121,12.0910588 6.25264121,11.9973588 6.00264121,11.9973588 C5.56514121,11.9973588 5.00264121,12.3723588 5.00264121,13.0285588 C5.00264121,13.2785588 5.09644121,13.5285588 5.28384121,13.7160588 L11.2838412,19.7160588 C11.4585269,19.8907445 11.6781759,19.9726384 11.8948021,19.9924716 L12.0026412,19.9973588 C12.2526412,20.0285588 12.5176412,19.9198588 12.7214412,19.7160588 L18.7214412,13.7160588 C18.9088412,13.5285588 19.0026412,13.2473588 19.0026412,13.0285588 C19.0026412,12.4660588 18.5338412,11.9973588 18.0026412,11.9973588 C17.7214412,11.9973588 17.4876412,12.1060588 17.2838412,12.3098588 L13.0026412,16.5910588 L13.0026412,4.99735879 C13.0026412,4.43485879 12.5651412,3.99735879 12.0026412,3.99735879 Z" id="🎨-Color"></path>
        </g>
    </g>
</svg>

<svg width="24" height="24" xmlns="http://www.w3.org/2000/svg"><path d="M12.003 3.997c-.563 0-1 .438-1 1v11.594L6.72 12.31a.998.998 0 00-.718-.313c-.438 0-1 .375-1 1.032 0 .25.093.5.28.687l6 6a.975.975 0 00.612.276l.108.005c.25.032.515-.077.718-.28l6-6c.188-.188.282-.47.282-.688 0-.563-.47-1.032-1-1.032a.981.981 0 00-.72.313l-4.28 4.281V4.997c0-.562-.438-1-1-1z" fill="#282D37" fill-rule="evenodd"/></svg>
